icons/transcript-24-f.svg

<svg xmlns="http://www.w3.org/2000/svg" viewBox="0 0 24 24"><path d="M0 0h24v24H0z"/><path d="M0 0h24v24H0z"/><path d="M3 1v22h18V1H3zm3 5h3v1H6V6zm0 8h7v1H6v-1zm9 5H6v-1h9v1zm3-4h-4v-1h4v1zm0-4H6v-1h12v1zm0-4h-8V6h8v1z" stroke-width="0"/></svg>

<?xml version="1.0" encoding="UTF-8"?><svg id="icons" xmlns="http://www.w3.org/2000/svg" viewBox="0 0 24 24"><defs><style>.cls-1{fill:none;}.cls-1,.cls-2{stroke-width:0px;}.cls-2{fill:#000;}</style></defs><rect class="cls-1" width="24" height="24"/><rect class="cls-1" width="24" height="24"/><path class="cls-2" d="M3,1v22h18V1H3ZM6,6h3v1h-3v-1ZM6,14h7v1h-7v-1ZM15,19H6v-1h9v1ZM18,15h-4v-1h4v1ZM18,11H6v-1h12v1ZM18,7h-8v-1h8v1Z"/></svg>
